!!!COM: Music21
!!!OTL: reel_Saint-Stephens
!!!OMV: reel_Saint-Stephens
**kern
*clefG2
*k[f#c#]
*D:
*M4/4
=1
4dd
8bL
8aJ
8f#L
8aJ
8aL
8f#J
=
8bL
8aJ
8eL
8f#J
8dL
8eJ
12f#L
12e
12dJ
=
8eL
8f#J
8f#L
8ddJ
8aL
8bJ
8bL
8ff#J
=
8eeL
8ddJ
8bL
8aJ
8f#L
8eJ
8f#L
8aJ
=
4dd
8bL
8aJ
8f#L
8aJ
8aL
8f#J
!!linebreak:original
=
8bL
8aJ
8eL
8f#J
8dL
8eJ
12f#L
12e
12dJ
=
8eL
8f#J
8f#L
8ddJ
8aL
8bJ
8bL
8ff#J
=
8eeL
8ddJ
8bL
8aJ
8bL
8f#J
8aL
8bJ
=||
*M4/4
4dd
8bL
8aJ
8f#L
8aJ
8aL
8f#J
=
8bL
8aJ
8eL
8f#J
8dL
8eJ
12f#L
12e
12dJ
!!linebreak:original
=
8eL
8f#J
8f#L
8ddJ
8aL
8bJ
8bL
8ff#J
=
8eeL
8ddJ
8bL
8aJ
8f#L
8eJ
8f#L
8aJ
=
4dd
8bL
8aJ
8f#L
8aJ
8aL
8f#J
=
8bL
8aJ
8eL
8f#J
8dL
8eJ
12f#L
12e
12dJ
=
8eL
8f#J
8f#L
8ddJ
8aL
8bJ
8bL
8ff#J
!!linebreak:original
=
8eeL
8ddJ
8bL
8aJ
4b
12aL
12b
12ddJ
=||
4gg
8ff#L
8eeJ
8ff#L
8bJ
8bL
8aJ
=
8eeL
8cc#J
8bL
8aJ
8ddL
8bJ
8bL
8aJ
=
8eL
8f#J
8f#L
8ddJ
8aL
8bJ
8bL
8ggJ
=
8ff#L
8eeJ
8ddL
8bJ
4ee
12aL
12b
12ddJ
!!linebreak:original
=
4gg
8ff#L
8eeJ
8ff#L
8bJ
8bL
8aJ
=
8eeL
8cc#J
8bL
8aJ
8ddL
8bJ
8bL
8aJ
=
8eL
8f#J
8f#L
8ddJ
8aL
8bJ
8bL
8ff#J
=
8eeL
8ddJ
8bL
8aJ
8bL
8f#J
8aL
8bJ
=||
4gg
8ff#L
8eeJ
8ff#L
8bJ
8bL
8aJ
!!linebreak:original
=
8eeL
8cc#J
8bL
8aJ
8ddL
8bJ
8bL
8aJ
=
8eL
8f#J
8f#L
8ddJ
8aL
8bJ
8bL
8ggJ
=
8ff#L
8eeJ
8ddL
8bJ
4ee
12aL
12b
12ddJ
=
4gg
8ff#L
8eeJ
8ff#L
8bJ
8bL
8aJ
=
8eeL
8cc#J
8bL
8aJ
8ddL
8bJ
8bL
8aJ
!!linebreak:original
=
8eL
8f#J
8f#L
8ddJ
8aL
8bJ
8bL
8ff#J
=
8eeL
8ddJ
8bL
8aJ
8bL
8f#J
8aL
8bJ
=||
*-
